X:8
T:Sikuri
R:waynu
Z:id:hn-waynu-8
O:Bolivia?
M:2/4
L:1/8
Q:1/4=90
K:Em
[M:4/4] GA BB/ee/d/c/ B2 |[M:3/4] ef g>e d/e/d/c/ |[M:2/4] B/g/f/g/ dg :|
|:[M:2/4] e/eec/A | B/BBG/E | GB/AA/G/F/ |1 E/e/B/e/ Be :|
[2 |:[M:3/4] E3/ef/g e2 |[M:2/4] BB/AA/G/F/ :| E/e/B/e/ Be ||

